!!!COM: Corelli, Arcangelo
!!!OTL: 
!!!ONM: Opus 4, No. 9
!!!OMV: 4
!!!CDT: 1653/2/17/-1713/1/8/
!!!OCY: Italia
**kern	**kern	**kern	**kern
*clefC	*clefC	*clefG	*clefG
*k[b-]	*k[b-]	*k[b-]	*k[b-]
*d:	*d:	*d:	*d:
*M2/2	*M2/2	*M2/2	*M2/2
=1	=1	=1	=1
1r	1r	2r	4f
.	.	.	4b-
.	.	4f	4a
.	.	4b-	4dd
=2	=2	=2	=2
4F	4F	4a	4cc
4B-	4B-	4dd	4b-
4A	4A	2cc	4f
4d	4d	.	[4ff
=3	=3	=3	=3
4G	4G	2b-	4ff]
4c	4c	.	2ee-
4F	4F	4a	.
4B-	4B-	[4b-	4dd
=4	=4	=4	=4
4E-	4E-	4b-]	2cc
4F	4F	4a	.
2BB-	2BB-	2b-	2b-
=5	=5	=5	=5
2r	2r	8b-	8dd
.	.	8cc	8ff
.	.	8a	8cc
.	.	8cc	8ff
4B-	4B-	8b-	8dd
.	.	8cc	8ff
4r	4r	8a	8cc
.	.	8cc	8ff
=6	=6	=6	=6
2r	2r	8b-	8dd
.	.	8cc	8ff
.	.	8a	8cc
.	.	8cc	8ff
4B-	4B-	2b-	2dd
4BB-	4BB-	.	.
=7	=7	=7	=7
2r	2r	8cc	8ee-
.	.	8dd	8gg
.	.	8b	8dd
.	.	8dd	8gg
4c	4c	8cc	8ee-
.	.	8dd	8gg
4r	4r	8b	8dd
.	.	8dd	8gg
=8	=8	=8	=8
2r	2r	8cc	8ee-
.	.	8dd	8gg
.	.	8b	8dd
.	.	8dd	8gg
4c	4c	2cc	2ee-
4C	4C	.	.
=9	=9	=9	=9
2r	2r	8dd	8ff
.	.	8ee	8aa
.	.	8cc#	8ee
.	.	8ee	8aa
4d	4d	8dd	8ff
.	.	8ee	8aa
4r	4r	8cc#	8ee
.	.	8ee	8aa
=10	=10	=10	=10
2r	2r	8dd	8ff
.	.	8ee	8aa
.	.	8cc#	8ee
.	.	8ee	8aa
4d	4d	4dd	4ff
4D	4D	[4ff	[4aa
=11	=11	=11	=11
4G	4G	4ff]	4aa]
4GG	4GG	8ee	8gg
.	.	8dd	8ff
4AA	4AA	4cc#	4ee
4D	4D	[4dd	4ff
=12	=12	=12	=12
4A	4A	4dd]	2ee
4AA	4AA	4cc#	.
4D	4D	4dd	4dd
4d	4d	[4ff	[4aa
=13	=13	=13	=13
4G	4G	4ff]	4aa]
4GG	4GG	8ee	8gg
.	.	8dd	8ff
4AA	4AA	4cc#	4ee
4D	4D	[4dd	4ff
=14	=14	=14	=14
4A	4A	4dd]	2ee
4AA	4AA	4cc#	.
2D	2D	2dd	2dd
=15	=15	=15	=15
2r	2r	8b-	8dd
.	.	8cc	8ff
.	.	8a	8cc
.	.	8cc	8ff
4B-	4B-	8b-	8dd
.	.	8cc	8ff
4r	4r	8a	8cc
.	.	8cc	8ff
=16	=16	=16	=16
2r	2r	8b-	8dd
.	.	8cc	8ff
.	.	8a	8cc
.	.	8cc	8ff
4B-	4B-	2b-	2dd
4BB-	4BB-	.	.
=17	=17	=17	=17
2r	2r	8ff	8dd
.	.	8dd	8ff
.	.	8ee-	8gg
.	.	8ff	8aa
4E-	4E-	8gg	8bb-
.	.	8ff	8aa
4r	4r	8ee-	8gg
.	.	8dd	8ff
=18	=18	=18	=18
2r	2r	8ee-	8gg
.	.	8dd	8ff
.	.	8cc	8ee-
.	.	8b-	8dd
2F	2F	2a	4cc
.	.	.	[4ff
=19	=19	=19	=19
2D	2D	2f	4ff]
.	.	.	2bb-
2E-	2E-	2g	.
.	.	.	[4gg
=20	=20	=20	=20
2C	2C	2ee-	4gg]
.	.	.	2ccc
2F	2F	2a	.
.	.	.	[4aa
=21	=21	=21	=21
2D	2D	2ff	4aa]
.	.	.	2ddd
2G	2G	2b-	.
.	.	.	[4bb-
=22	=22	=22	=22
2E-	2E-	2gg	4bb-]
.	.	.	4gg
4F	4F	4cc	4a
4BB-	4BB-	4dd	[4b-
=23	=23	=23	=23
4F	4F	2cc	4b-]
4FF	4FF	.	4a
2BB-	2BB-	2b-	4b-
.	.	.	[4ff
=24	=24	=24	=24
2D	2D	2f	4ff]
.	.	.	2bb-
2E-	2E-	2g	.
.	.	.	[4gg
=25	=25	=25	=25
2C	2C	2ee-	4gg]
.	.	.	2ccc
2F	2F	2a	.
.	.	.	[4aa
=26	=26	=26	=26
2D	2D	2ff	4aa]
.	.	.	2ddd
2G	2G	2b-	.
.	.	.	[4bb-
=27	=27	=27	=27
2E-	2E-	2gg	4bb-]
.	.	.	4gg
4F	4F	4cc	4a
4BB-	4BB-	4dd	[4b-
=28	=28	=28	=28
4F	4F	2cc	4b-]
4FF	4FF	.	4a
2BB-	2BB-	2b-	2b-
=29	=29	=29	=29
2F#	2F#	4r	8a
.	.	.	8dd
.	.	4a	8cc
.	.	.	8dd
4G	4G	2d	8b-
.	.	.	8dd
4F#	4F#	.	8a
.	.	.	8dd
=30	=30	=30	=30
4G	4G	4r	8b-
.	.	.	8dd
4F#	4F#	4a	8a
.	.	.	8dd
4G	4G	2d	2b-
4GG	4GG	.	.
=31	=31	=31	=31
2B	2B	4r	8dd
.	.	.	8gg
.	.	4dd	8ff
.	.	.	8gg
4c	4c	2g	8ee-
.	.	.	8gg
4B	4B	.	8dd
.	.	.	8gg
=32	=32	=32	=32
4c	4c	4r	8ee-
.	.	.	8gg
4B	4B	4dd	8dd
.	.	.	8gg
4c	4c	2g	4ee-
4E-	4E-	.	4gg
=33	=33	=33	=33
4F	4F	4r	4aa-
4FF	4FF	4aa-	2ff
4GG	4GG	4b	.
4C	4C	[4cc	4ee-
=34	=34	=34	=34
4G	4G	4cc]	2dd
4GG	4GG	4b	.
4C	4C	4cc	8cc
.	.	.	8gg
4r	4r	4r	8dd
.	.	.	8gg
=35	=35	=35	=35
4c	4c	2r	8ee-
.	.	.	8gg
4B	4B	.	8dd
.	.	.	8gg
4c	4c	8r	4ee-
.	.	8gg	.
4B	4B	8dd	4g
.	.	8gg	.
=36	=36	=36	=36
4c	4c	8ee-	2r
.	.	8gg	.
4B	4B	8dd	.
.	.	8gg	.
4c	4c	4ee-	8r
.	.	.	8aa
4r	4r	4r	8ee
.	.	.	8aa
=37	=37	=37	=37
4d	4d	2r	8ff
.	.	.	8aa
4c#	4c#	.	8ee
.	.	.	8aa
4d	4d	8r	4ff
.	.	8aa	.
4c#	4c#	8ee	4a
.	.	8aa	.
=38	=38	=38	=38
4d	4d	8ff	2r
.	.	8aa	.
4c#	4c#	8ee	.
.	.	8aa	.
4d	4d	8ff	8r
.	.	8ff	8aa
4D	4D	8ee	8gg
.	.	8ff	8aa
=39	=39	=39	=39
4G	4G	8gg	8bb-
.	.	8ff	8aa
4GG	4GG	8ee	8gg
.	.	8dd	8ff
4AA	4AA	4cc#	8ee
.	.	.	8aa
4D	4D	[4dd	8gg
.	.	.	8ff
=40	=40	=40	=40
4A	4A	4dd]	2ee
4AA	4AA	4cc#	.
2D	2D	2dd	2dd
=41	=41	=41	=41
1r	1r	2r	4f
.	.	.	4b-
.	.	4f	4a
.	.	4b-	4dd
=42	=42	=42	=42
4F	4F	4a	4cc
4B-	4B-	4dd	4b-
4A	4A	4cc	4f
4d	4d	4f	4ff
=43	=43	=43	=43
4G	4G	4dd	4bb-
4BB-	4BB-	2b-	4dd
4C	4C	.	4ee
4F	4F	4a	[4ff
=44	=44	=44	=44
4c	4c	4g	4ff]
4C	4C	4cc	4ee
4F	4F	2a	2ff
4E-	4E-	.	.
=45	=45	=45	=45
2D	2D	2r	8ff
.	.	.	8ee-
.	.	.	8dd
.	.	.	8cc
2E-	2E-	8r	2b-
.	.	8gg	.
.	.	8ff	.
.	.	8gg	.
=46	=46	=46	=46
2F	2F	2a	8r
.	.	.	8aa
.	.	.	8gg
.	.	.	8aa
2G	2G	8r	2b-
.	.	8bb-	.
.	.	8aa	.
.	.	8bb-	.
=47	=47	=47	=47
2D	2D	2b-	8r
.	.	.	8bb-
.	.	.	8aa
.	.	.	8bb-
2E-	2E-	8r	2b-
.	.	8bb-	.
.	.	8aa	.
.	.	8bb-	.
=48	=48	=48	=48
2F	2F	2b-	8r
.	.	.	8bb-
.	.	.	8aa
.	.	.	8bb-
2G	2G	8r	2b-
.	.	8bb-	.
.	.	8aa	.
.	.	8bb-	.
=49	=49	=49	=49
2D	2D	8ff	8r
.	.	8dd	8bb-
.	.	8b-	8ff
.	.	8dd	8bb-
2E-	2E-	8g	8gg
.	.	8a	8ff
.	.	4b-	8ee-
.	.	.	8dd
=50	=50	=50	=50
2F	2F	4.b-	2cc
.	.	8a	.
2BB-	2BB-	2b-	2b-
=51	=51	=51	=51
2D	2D	2r	8ff
.	.	.	8ee-
.	.	.	8dd
.	.	.	8cc
2E-	2E-	8r	2b-
.	.	8gg	.
.	.	8ff	.
.	.	8gg	.
=52	=52	=52	=52
2F	2F	2a	8r
.	.	.	8aa
.	.	.	8gg
.	.	.	8aa
2G	2G	8r	2b-
.	.	8bb-	.
.	.	8aa	.
.	.	8bb-	.
=53	=53	=53	=53
2D	2D	2b-	8r
.	.	.	8bb-
.	.	.	8aa
.	.	.	8bb-
2E-	2E-	8r	2b-
.	.	8bb-	.
.	.	8aa	.
.	.	8bb-	.
=54	=54	=54	=54
2F	2F	2b-	8r
.	.	.	8bb-
.	.	.	8aa
.	.	.	8bb-
2G	2G	8r	2b-
.	.	8bb-	.
.	.	8aa	.
.	.	8bb-	.
=55	=55	=55	=55
2D	2D	8ff	8r
.	.	8dd	8bb-
.	.	8b-	8ff
.	.	8dd	8bb-
2E-	2E-	8g	8gg
.	.	8a	8ff
.	.	[4b-	8ee-
.	.	.	8dd
=56	=56	=56	=56
2F	2F	4.b-]	2cc
.	.	8a	.
2BB-	2BB-	2b-	2b-
==	==	==	==
*-	*-	*-	*-
!!!RWG: This file only contains pitch and duration data.
!!!RWG: Transposing instruments are not transposed.
!!!RWG: Durations of rests and tied notes may be interpreted.
!!!RWG: Key is interpreted using the Humdrum key tool.
!!!SCA: 
!!!YOR: Chrysander Edition
!!!AGN: chamber
!!!AFT: stage1
!!!ENC: F. Bennion
!!!END: 1997/04/15
!!!AST: baroque
!!!YEC: Copyright 1994, Center for Computer Assisted Research in the Humanities
!!!YEM: Rights to all derivative electronic formats reserved.
!!!YEM: Refer to licensing agreement for further details.
!!!YEN: United States of America
!!!EED: W.B. Hewlett
!!!KEY: 3565515676
!!!EMD: Converted from MuseData to Humdrum Aug 9, 1999, by Bret Aarden using muse2kern.
!!!VTS: 511737942
